!! 00025] TT[TB
!! Eigene Aufnahme
!!!OTL: Molihua
!!!ARE: Asia, China,ÿHebei, Nanpi
!! Ethnic Group: Han
!! IV, 71
!!!SCT: C0381
!!!YEM: Copyright 1995, estate of Helmut Schaffrath.
**kern
*ICvox
*Ivox
*M2/4
*k[f#c#]
*D:
{8b
8a#
8b
8dd
=1
8f#
8a
8b
16a
16b
=2
8dd
4a
16b
16dd
=3
2a}
=4
{8dd
8cc#
8dd
8ee
=5
8f#
8a
8b
16a
16b
=6
8dd
4a
16b
16dd
=7
2a}
=8
{8a
8f#
[4a
=9
8a]
16a
16a
8f#
8a
=10
8.b
16dd
8b
8a
=11
4b
8f#
8f#}
=12
{8e
8d#
8e
8e
=13
8f#
8a
8f#
8e
=14
4.d
16e
16f#
=15
2d}
=16
{8f#
16f#
16e
8d
16a
16f#
=17
4e
8e
8d
=18
8e
8d#
8e
16e
16f#
=19
8a
8f#
4a
=20
8dd
16f#
16f#
8a
8a}
=21
{8.e
16f#
8e
16e
16d
=22
8e
8A
[4B
=23
8B]
8r}
{8b
8dd
=24
4.ee
16ff#
16ee
=25
8.dd
16ee
8cc#
8b
=26
8a
8b
8dd
8cc#
=27
8b
8a
16f#
16a
16b
16dd
=28
4.a
16b
16dd
=29
4.a
8r}
==
!!!AGN: Xiaodiao, Shidiao, Molihua diao
!!    Chang "Xixiyngji" de gushi
!! typisch fuer diese Provinz. Die Texte verschiedener Moli hua sind
!!    gleich. Enthaelt Elemente der Lokaloper.
!!    Saengerin Huang Bai am 28.4.87, wieder erkaeltet)
!!    Vereinzelt Verzierungen, Glissandi. Nicht das beruehmte Stueck!
!!!ONB: ESAC (Essen Associative Code) Database: CHINA
!!!AMT: simple duple
!!!AIN: vox
!!!EED: Helmut Schaffrath
!!!EEV: 1.0
*-
!!!ONB: Tied note syntax fixed by Craig Sapp, 2004/05/03/
